src/WeatherTwentyOne/Resources/Images/fluent_weather_snow_shower_night_20_filled.svg

<svg width="40" height="40" viewBox="0 0 40 40" fill="none" xmlns="http://www.w3.org/2000/svg">
<path d="M19.0001 34C19.2653 34 19.5197 34.1054 19.7072 34.2929C19.8947 34.4804 20.0001 34.7348 20.0001 35C20.0001 35.2652 19.8947 35.5196 19.7072 35.7071C19.5197 35.8946 19.2653 36 19.0001 36C18.7349 36 18.4805 35.8946 18.293 35.7071C18.1055 35.5196 18.0001 35.2652 18.0001 35C18.0001 34.7348 18.1055 34.4804 18.293 34.2929C18.4805 34.1054 18.7349 34 19.0001 34ZM25.0001 34C25.2653 34 25.5197 34.1054 25.7072 34.2929C25.8947 34.4804 26.0001 34.7348 26.0001 35C26.0001 35.2652 25.8947 35.5196 25.7072 35.7071C25.5197 35.8946 25.2653 36 25.0001 36C24.7349 36 24.4805 35.8946 24.293 35.7071C24.1055 35.5196 24.0001 35.2652 24.0001 35C24.0001 34.7348 24.1055 34.4804 24.293 34.2929C24.4805 34.1054 24.7349 34 25.0001 34ZM16.0001 32C16.2653 32 16.5197 32.1054 16.7072 32.2929C16.8947 32.4804 17.0001 32.7348 17.0001 33C17.0001 33.2652 16.8947 33.5196 16.7072 33.7071C16.5197 33.8946 16.2653 34 16.0001 34C15.7349 34 15.4805 33.8946 15.293 33.7071C15.1055 33.5196 15.0001 33.2652 15.0001 33C15.0001 32.7348 15.1055 32.4804 15.293 32.2929C15.4805 32.1054 15.7349 32 16.0001 32V32ZM22.0001 32C22.2653 32 22.5197 32.1054 22.7072 32.2929C22.8947 32.4804 23.0001 32.7348 23.0001 33C23.0001 33.2652 22.8947 33.5196 22.7072 33.7071C22.5197 33.8946 22.2653 34 22.0001 34C21.7349 34 21.4805 33.8946 21.293 33.7071C21.1055 33.5196 21.0001 33.2652 21.0001 33C21.0001 32.7348 21.1055 32.4804 21.293 32.2929C21.4805 32.1054 21.7349 32 22.0001 32V32ZM28.0001 32C28.2653 32 28.5197 32.1054 28.7072 32.2929C28.8947 32.4804 29.0001 32.7348 29.0001 33C29.0001 33.2652 28.8947 33.5196 28.7072 33.7071C28.5197 33.8946 28.2653 34 28.0001 34C27.7349 34 27.4805 33.8946 27.293 33.7071C27.1055 33.5196 27.0001 33.2652 27.0001 33C27.0001 32.7348 27.1055 32.4804 27.293 32.2929C27.4805 32.1054 27.7349 32 28.0001 32V32ZM22.0001 12C26.9301 12 29.7261 15.148 30.1321 18.948H30.2561C33.4281 18.948 36.0001 21.422 36.0001 24.474C36.0001 27.526 33.4281 30 30.2561 30H13.7441C10.5721 30 8.0001 27.526 8.0001 24.474C8.0001 21.534 10.3841 19.132 13.3941 18.958L13.8681 18.948C14.2781 15.122 17.0701 12 22.0001 12ZM11.6861 4C13.0209 4.07239 14.3196 4.45961 15.4761 5.13C16.4416 5.68558 17.2882 6.42604 17.9673 7.30904C18.6465 8.19203 19.1449 9.20023 19.4341 10.276C15.9861 11.036 13.5081 13.356 12.4961 16.558L12.3681 17L12.2761 17.374L11.9461 17.434C10.203 17.7919 8.64362 18.7573 7.5461 20.158C6.2093 19.5194 5.06321 18.5416 4.2221 17.322C4.11319 17.1633 4.04212 16.9818 4.01437 16.7914C3.98662 16.601 4.00293 16.4067 4.06204 16.2236C4.12116 16.0404 4.2215 15.8733 4.35535 15.735C4.4892 15.5968 4.65298 15.491 4.8341 15.426C7.5861 14.442 9.0681 13.334 9.9141 11.714C10.8401 9.948 11.0121 8.074 10.3981 5.554C10.1981 4.736 10.8441 3.956 11.6861 4.002V4Z" fill="url(#paint0_linear)"/>
<defs>
<linearGradient id="paint0_linear" x1="9.46548" y1="9.78541" x2="27.9445" y2="27.1074" gradientUnits="userSpaceOnUse">
<stop offset="0.10243" stop-color="#28C2D1"/>
<stop offset="0.925347" stop-color="#4931DE"/>
</linearGradient>
</defs>
</svg>

<svg width="40" height="40" fill="none" xmlns="http://www.w3.org/2000/svg">
    <path
        d="M19 34a1 1 0 110 2 1 1 0 010-2zm6 0a1 1 0 110 2 1 1 0 010-2zm-9-2a1 1 0 110 2 1 1 0 010-2zm6 0a1 1 0 110 2 1 1 0 010-2zm6 0a1 1 0 110 2 1 1 0 010-2zm-6-20c4.93 0 7.726 3.148 8.132 6.948h.124c3.172 0 5.744 2.474 5.744 5.526C36 27.526 33.428 30 30.256 30H13.744C10.572 30 8 27.526 8 24.474c0-2.94 2.384-5.342 5.394-5.516l.474-.01C14.278 15.122 17.07 12 22 12zM11.686 4a8.472 8.472 0 013.79 1.13 8.476 8.476 0 013.958 5.146c-3.448.76-5.926 3.08-6.938 6.282l-.128.442-.092.374-.33.06a7.508 7.508 0 00-4.4 2.724 8.476 8.476 0 01-3.324-2.836 1.258 1.258 0 01.612-1.896c2.752-.984 4.234-2.092 5.08-3.712.926-1.766 1.098-3.64.484-6.16a1.255 1.255 0 011.288-1.552V4z"
        fill="url(#prefix__paint0_linear)" />
    <defs>
        <linearGradient id="prefix__paint0_linear" x1="9.465" y1="9.785" x2="27.945" y2="27.107"
            gradientUnits="userSpaceOnUse">
            <stop offset=".102" stop-color="#28C2D1" />
            <stop offset=".925" stop-color="#4931DE" />
        </linearGradient>
    </defs>
</svg>
